static/cards/FrenchDeck/cyberwave/card_clubs_02.svg

<svg xmlns="http://www.w3.org/2000/svg" width="822" height="1122" fill="none" viewBox="0 0 822 1122"><rect width="822" height="1122" fill="#1a0033" rx="20"/><g fill="#fff066" clip-path="url(#a)"><path d="M94.359 159q-2.944 0-2.944-2.944v-4.096q0-8.32 7.04-16.64t19.84-14.72q9.856-4.864 15.232-8.576 5.376-3.84 7.808-8.192 2.56-4.352 2.56-10.624 0-8.576-6.528-12.928-6.4-4.352-16.256-4.352-14.72 0-23.168 5.376-.64.384-.896.384-.512 0-.896-.768l-1.664-2.816a1.58 1.58 0 0 1-.256-.896q0-.64.896-1.152 3.84-2.688 10.752-4.352 7.04-1.665 15.232-1.664 8.32 0 14.976 2.688t10.496 7.936q3.968 5.248 3.968 12.544 0 7.552-3.2 13.056t-8.96 9.728-14.976 8.704Q111 130.84 104.599 138.008q-6.272 7.04-6.272 14.72h48.256q2.944 0 2.944 2.816v.896q0 1.408-.768 2.048-.64.512-2.176.512zM141.309 231.337v-.004c0-11.782-9.224-21.333-20.603-21.333s-20.603 9.551-20.603 21.333c-11.379 0-20.603 9.552-20.603 21.334S88.724 274 100.103 274c10.386 0 18.977-7.957 20.397-18.305C121.92 266.043 130.511 274 140.897 274c11.379 0 20.603-9.551 20.603-21.333 0-11.64-9.002-21.102-20.191-21.33"/><rect width="5" height="33" x="118.5" y="251" rx="2.5"/><path d="M719.641 959q2.944 0 2.944 2.944v4.096q0 8.32-7.04 16.64t-19.84 14.72q-9.856 4.86-15.232 8.58-5.376 3.84-7.808 8.19-2.56 4.35-2.56 10.62 0 8.58 6.528 12.93 6.4 4.35 16.256 4.35 14.72 0 23.168-5.37.64-.39.896-.39c.341 0 .64.26.896.77l1.664 2.82c.171.25.256.55.256.89 0 .43-.299.81-.896 1.15-2.56 1.8-6.144 3.25-10.752 4.36-4.693 1.11-9.771 1.66-15.232 1.66-5.547 0-10.539-.9-14.976-2.69s-7.936-4.44-10.496-7.93c-2.645-3.5-3.968-7.68-3.968-12.55q0-7.545 3.2-13.05c2.133-3.67 5.12-6.92 8.96-9.73q5.76-4.226 14.976-8.706 12.416-6.144 18.816-13.312 6.272-7.04 6.272-14.72h-48.256q-2.944 0-2.944-2.816v-.896q0-1.408.768-2.048.64-.512 2.176-.512zM672.691 886.663v.004c0 11.782 9.224 21.333 20.603 21.333s20.603-9.551 20.603-21.333c11.379 0 20.603-9.552 20.603-21.334S725.276 844 713.897 844c-10.386 0-18.977 7.957-20.397 18.305C692.08 851.957 683.489 844 673.103 844c-11.379 0-20.603 9.551-20.603 21.333 0 11.64 9.002 21.102 20.191 21.33"/><rect width="5" height="33" x="695.5" y="867" rx="2.5" transform="rotate(-180 695.5 867)"/></g><path stroke="#fff066" stroke-width="8" d="M327.779 520.935c13.001 0 23.889 11.163 23.889 25.377v3.923l3.918.081c12.786.265 23.414 11.333 23.414 25.372 0 14.214-10.889 25.377-23.89 25.377-11.873 0-21.966-9.289-23.646-21.741h-7.928c-1.68 12.452-11.773 21.741-23.646 21.741-13.001 0-23.89-11.163-23.89-25.377s10.889-25.376 23.89-25.376h4v-4c0-14.214 10.889-25.377 23.889-25.377Z"/><path fill="#fff066" d="M324.307 583.027a3.04 3.04 0 1 1 6.082 0v30.932a3.04 3.04 0 1 1-6.082 0z"/><path stroke="#fff066" stroke-width="8" d="M495.779 520.935c13.001 0 23.889 11.163 23.889 25.377v3.923l3.918.081c12.786.265 23.414 11.333 23.414 25.372 0 14.214-10.889 25.377-23.89 25.377-11.873 0-21.966-9.289-23.646-21.741h-7.928c-1.68 12.452-11.773 21.741-23.646 21.741-13.001 0-23.89-11.163-23.89-25.377s10.889-25.376 23.89-25.376h4v-4c0-14.214 10.889-25.377 23.889-25.377Z"/><path fill="#fff066" d="M492.307 583.027a3.04 3.04 0 1 1 6.082 0v30.932a3.04 3.04 0 1 1-6.082 0z"/><defs><clipPath id="a"><path fill="#fff" d="M46 48h722v1022H46z"/></clipPath></defs></svg>

<svg width="822" height="1122" viewBox="0 0 822 1122" fill="none" xmlns="http://www.w3.org/2000/svg">
<rect width="822" height="1122" rx="20" fill="#1A0033"/>
<g clip-path="url(#clip0_31_857)">
<path d="M94.359 159C92.3963 159 91.415 158.019 91.415 156.056V151.96C91.415 146.413 93.7617 140.867 98.455 135.32C103.148 129.773 109.762 124.867 118.295 120.6C124.866 117.357 129.943 114.499 133.527 112.024C137.111 109.464 139.714 106.733 141.335 103.832C143.042 100.931 143.895 97.3893 143.895 93.208C143.895 87.4907 141.719 83.1813 137.367 80.28C133.1 77.3787 127.682 75.928 121.111 75.928C111.298 75.928 103.575 77.72 97.943 81.304C97.5163 81.56 97.2177 81.688 97.047 81.688C96.7057 81.688 96.407 81.432 96.151 80.92L94.487 78.104C94.3163 77.848 94.231 77.5493 94.231 77.208C94.231 76.7813 94.5297 76.3973 95.127 76.056C97.687 74.264 101.271 72.8133 105.879 71.704C110.572 70.5947 115.65 70.04 121.111 70.04C126.658 70.04 131.65 70.936 136.087 72.728C140.524 74.52 144.023 77.1653 146.583 80.664C149.228 84.1627 150.551 88.344 150.551 93.208C150.551 98.2427 149.484 102.595 147.351 106.264C145.218 109.933 142.231 113.176 138.391 115.992C134.551 118.808 129.559 121.709 123.415 124.696C115.138 128.792 108.866 133.229 104.599 138.008C100.418 142.701 98.327 147.608 98.327 152.728H146.583C148.546 152.728 149.527 153.667 149.527 155.544V156.44C149.527 157.379 149.271 158.061 148.759 158.488C148.332 158.829 147.607 159 146.583 159H94.359Z" fill="#FFF066"/>
<path d="M141.309 231.337C141.309 231.336 141.309 231.335 141.309 231.333C141.309 219.551 132.085 210 120.706 210C109.327 210 100.103 219.551 100.103 231.333C88.7243 231.333 79.5 240.885 79.5 252.667C79.5 264.449 88.7243 274 100.103 274C110.489 274 119.08 266.043 120.5 255.695C121.92 266.043 130.511 274 140.897 274C152.276 274 161.5 264.449 161.5 252.667C161.5 241.027 152.498 231.565 141.309 231.337Z" fill="#FFF066"/>
<rect x="118.5" y="251" width="5" height="33" rx="2.5" fill="#FFF066"/>
<path d="M719.641 959C721.604 959 722.585 959.981 722.585 961.944V966.04C722.585 971.587 720.238 977.133 715.545 982.68C710.852 988.227 704.238 993.133 695.705 997.4C689.134 1000.64 684.057 1003.5 680.473 1005.98C676.889 1008.54 674.286 1011.27 672.665 1014.17C670.958 1017.07 670.105 1020.61 670.105 1024.79C670.105 1030.51 672.281 1034.82 676.633 1037.72C680.9 1040.62 686.318 1042.07 692.889 1042.07C702.702 1042.07 710.425 1040.28 716.057 1036.7C716.484 1036.44 716.782 1036.31 716.953 1036.31C717.294 1036.31 717.593 1036.57 717.849 1037.08L719.513 1039.9C719.684 1040.15 719.769 1040.45 719.769 1040.79C719.769 1041.22 719.47 1041.6 718.873 1041.94C716.313 1043.74 712.729 1045.19 708.121 1046.3C703.428 1047.41 698.35 1047.96 692.889 1047.96C687.342 1047.96 682.35 1047.06 677.913 1045.27C673.476 1043.48 669.977 1040.83 667.417 1037.34C664.772 1033.84 663.449 1029.66 663.449 1024.79C663.449 1019.76 664.516 1015.41 666.649 1011.74C668.782 1008.07 671.769 1004.82 675.609 1002.01C679.449 999.192 684.441 996.291 690.585 993.304C698.862 989.208 705.134 984.771 709.401 979.992C713.582 975.299 715.673 970.392 715.673 965.272H667.417C665.454 965.272 664.473 964.333 664.473 962.456V961.56C664.473 960.621 664.729 959.939 665.241 959.512C665.668 959.171 666.393 959 667.417 959H719.641Z" fill="#FFF066"/>
<path d="M672.691 886.663C672.691 886.664 672.691 886.665 672.691 886.667C672.691 898.449 681.915 908 693.294 908C704.673 908 713.897 898.449 713.897 886.667C725.276 886.667 734.5 877.115 734.5 865.333C734.5 853.551 725.276 844 713.897 844C703.511 844 694.92 851.957 693.5 862.305C692.08 851.957 683.489 844 673.103 844C661.724 844 652.5 853.551 652.5 865.333C652.5 876.973 661.502 886.435 672.691 886.663Z" fill="#FFF066"/>
<rect x="695.5" y="867" width="5" height="33" rx="2.5" transform="rotate(-180 695.5 867)" fill="#FFF066"/>
</g>
<path d="M327.779 520.935C340.78 520.935 351.668 532.098 351.668 546.312V550.235L355.586 550.316C368.372 550.581 379 561.649 379 575.688C379 589.902 368.111 601.065 355.11 601.065C343.237 601.065 333.144 591.776 331.464 579.324H323.536C321.856 591.776 311.763 601.065 299.89 601.065C286.889 601.065 276 589.902 276 575.688C276 561.475 286.889 550.312 299.89 550.312H303.89V546.312C303.89 532.098 314.779 520.935 327.779 520.935Z" stroke="#FFF066" stroke-width="8"/>
<path d="M324.307 583.027C324.307 581.347 325.668 579.986 327.348 579.986C329.028 579.986 330.389 581.347 330.389 583.027V613.959C330.389 615.639 329.028 617 327.348 617C325.668 617 324.307 615.639 324.307 613.959V583.027Z" fill="#FFF066"/>
<path d="M495.779 520.935C508.78 520.935 519.668 532.098 519.668 546.312V550.235L523.586 550.316C536.372 550.581 547 561.649 547 575.688C547 589.902 536.111 601.065 523.11 601.065C511.237 601.065 501.144 591.776 499.464 579.324H491.536C489.856 591.776 479.763 601.065 467.89 601.065C454.889 601.065 444 589.902 444 575.688C444 561.475 454.889 550.312 467.89 550.312H471.89V546.312C471.89 532.098 482.779 520.935 495.779 520.935Z" stroke="#FFF066" stroke-width="8"/>
<path d="M492.307 583.027C492.307 581.347 493.668 579.986 495.348 579.986C497.028 579.986 498.389 581.347 498.389 583.027V613.959C498.389 615.639 497.028 617 495.348 617C493.668 617 492.307 615.639 492.307 613.959V583.027Z" fill="#FFF066"/>
<defs>
<clipPath id="clip0_31_857">
<rect width="722" height="1022" fill="white" transform="translate(46 48)"/>
</clipPath>
</defs>
</svg>
